icons/1_Primary/WP Engine.svg

<svg xmlns="http://www.w3.org/2000/svg" width="1024" height="1024" fill="none">
   <g clip-path="url(#a)">
      <path fill="#96DFD3" d="M512 1024c282.77 0 512-229.23 512-512S794.77 0 512 0 0 229.23 0 512s229.23 512 512 512Z"/>
      <path fill="#fff" d="M443.4 723.7h135.9v-103l-32.9-32.9h-70.1l-32.9 32.9v103Zm175.9-278.9-32.9 32.9v71.5l32.9 32.9h103V446.2h-103v-1.4Zm-40.1-144.5H443.4v103l32.9 32.9h70.1l32.9-32.9v-103h-.1Zm144.5 423.4v-103l-32.9-32.9h-103v135.9h135.9ZM333.2 300.3l-32.9 32.9v103h135.9V300.3h-103Zm254.6 0v103l32.9 32.9h103V300.3H587.8ZM512 532c-10 0-18.6-8.6-18.6-18.6 0-10 8.6-18.6 18.6-18.6 10 0 18.6 8.6 18.6 18.6 0 10-8.6 18.6-18.6 18.6Zm-75.8-87.2H300.3v135.9h103l32.9-32.9v-103Zm0 175.9-32.9-32.9h-103v135.9h103l32.9-32.9v-70.1Z"/>
   </g>
   <defs>
      <clipPath id="a">
         <path fill="#fff" d="M0 0h1024v1024H0z"/>
      </clipPath>
   </defs>
</svg>

<svg width="1024" height="1024" viewBox="0 0 1024 1024" fill="none" xmlns="http://www.w3.org/2000/svg">
<g clip-path="url(#clip0_2_3957)">
<path d="M512 1024C794.77 1024 1024 794.77 1024 512C1024 229.23 794.77 0 512 0C229.23 0 0 229.23 0 512C0 794.77 229.23 1024 512 1024Z" fill="#96DFD3"/>
<path d="M443.4 723.7H579.3V620.7L546.4 587.8H476.3L443.4 620.7V723.7ZM619.3 444.8L586.4 477.7V549.2L619.3 582.1H722.3V446.2H619.3V444.8ZM579.2 300.3H443.4V403.3L476.3 436.2H546.4L579.3 403.3V300.3H579.2ZM723.7 723.7V620.7L690.8 587.8H587.8V723.7H723.7ZM333.2 300.3L300.3 333.2V436.2H436.2V300.3H333.2ZM587.8 300.3V403.3L620.7 436.2H723.7V300.3H587.8ZM512 532C502 532 493.4 523.4 493.4 513.4C493.4 503.4 502 494.8 512 494.8C522 494.8 530.6 503.4 530.6 513.4C530.6 523.4 522 532 512 532ZM436.2 444.8H300.3V580.7H403.3L436.2 547.8V444.8ZM436.2 620.7L403.3 587.8H300.3V723.7H403.3L436.2 690.8V620.7Z" fill="white"/>
</g>
<defs>
<clipPath id="clip0_2_3957">
<rect width="1024" height="1024" fill="white"/>
</clipPath>
</defs>
</svg>
